X:9424
T:Le Quadrille Boston
M:4/4
K:D
AG|FAdbe2dF|FAdAc2BG|Gbgef2ed|cABcBAG|FAdfe2dF|FAdAc2BG|GBgef2ed|cABcd2:||ag|f2af dedc|B2dBG2gf|efedc2AB|cAB^GA2ag|f2afdedc|B2dBG2gf|efed cABc|dfecd2:||ag|fefd' bafe|defde2Bc|d2cd BdAd|fedfe2de|fefd' bafe|defde2Bc|d2cd BdAd|fdecd2:||


